X: 845
T: Alborada D'Amandi
R: polka
M: 2/4
K: Gmajor
B/c/B/A/ Bc|BG GG/A/|B/c/B/A/ Bc|BG G/A/B/c/|
d/e/d/B/ de|dB de/f/|gf/e/ dc|BA A/B/c/d/|
g/f/e/d/ BF|AG B/A/B/c/|ee/f/ gf|ed c/B/A/B/|
cc/d/ ed|cB G/A/B/c/|e/c/A/c/ gf|ed g/f/e/d/|
Bd/c/ Ad|Gg g/f/e/d/|Bd/c/ Ad/A/|1 G2 B,/D/G/A/:|2 G4||

